src/dsmComponents/Icons/car-driving-16px.svg

<?xml version="1.0" encoding="UTF-8"?>
<svg width="16px" height="13px" viewBox="0 0 16 13" version="1.1" xmlns="http://www.w3.org/2000/svg" xmlns:xlink="http://www.w3.org/1999/xlink">
    <!-- Generator: Sketch 59.1 (86144) - https://sketch.com -->
    <title>car-driving-16px</title>
    <desc>Created with Sketch.</desc>
    <defs>
        <path d="M12.46,8.623 C11.899,8.623 11.446,8.169 11.446,7.609 C11.446,7.05 11.899,6.596 12.46,6.596 C13.02,6.596 13.474,7.05 13.474,7.609 C13.474,8.169 13.02,8.623 12.46,8.623 M3.542,8.623 C2.982,8.623 2.528,8.169 2.528,7.609 C2.528,7.05 2.982,6.596 3.542,6.596 C4.103,6.596 4.556,7.05 4.556,7.609 C4.556,8.169 4.103,8.623 3.542,8.623 M2.623,4.371 L3.816,1.408 C3.95,1.076 4.348,0.804 4.699,0.804 L11.303,0.804 C11.654,0.804 12.052,1.076 12.186,1.408 L13.379,4.371 C13.513,4.703 13.334,4.975 12.981,4.975 L3.021,4.975 C2.668,4.975 2.489,4.703 2.623,4.371 M15.1402,10.6608 L15.1402,11.3168 C15.1402,11.7808 14.7812,12.1578 14.3402,12.1578 L14.3402,12.1578 L13.2952,12.1578 C12.8542,12.1578 12.4952,11.7808 12.4952,11.3168 L12.4952,11.3168 L12.4952,10.6608 L15.1402,10.6608 Z M3.5074,10.6608 L3.5074,11.3168 C3.5074,11.7808 3.1474,12.1578 2.7074,12.1578 L2.7074,12.1578 L1.6624,12.1578 C1.2204,12.1578 0.8614,11.7808 0.8614,11.3168 L0.8614,11.3168 L0.8614,10.6608 L3.5074,10.6608 Z M11.692,0 C12.28,0 12.941,0.465 13.165,1.039 L13.165,1.039 L13.953,3.06 L14.359,4.098 L15.32,4.098 C15.695,4.098 16,4.418 16,4.813 C16,5.207 15.695,5.527 15.32,5.527 L15.32,5.527 L14.889,5.527 C15.034,6.044 15.14,6.691 15.14,7.143 L15.14,7.143 L15.14,10.157 L12.495,10.157 L12.495,10.156 L3.507,10.156 L3.507,10.157 L0.861,10.157 L0.861,7.143 C0.861,6.691 0.967,6.044 1.112,5.527 L1.112,5.527 L0.679,5.527 C0.304,5.527 0,5.207 0,4.813 C0,4.418 0.304,4.098 0.679,4.098 L0.679,4.098 L1.644,4.098 L2.05,3.057 L2.837,1.039 C3.061,0.465 3.721,0 4.31,0 L4.31,0 Z" id="path-1"></path>
    </defs>
    <g id="Final" stroke="none" stroke-width="1" fill="none" fill-rule="evenodd">
        <g id="All-Nucleo-Icons" transform="translate(-319.000000, -1055.000000)">
            <g id="Solo/Nucleo/16px/car-driving" transform="translate(315.000000, 1049.000000)">
                <g id="driving" transform="translate(4.000000, 6.000000)">
                    <g id="Colour/Default-Colour">
                        <g>
                            <mask id="mask-2" fill="white">
                                <use xlink:href="#path-1"></use>
                            </mask>
                            <g id="Mask"></g>
                            <g id="colour/neutral/chia" mask="url(#mask-2)" fill="#737373">
                                <g transform="translate(-24.000000, -26.000000)" id="Colour">
                                    <rect x="0" y="0" width="64" height="64"></rect>
                                </g>
                            </g>
                        </g>
                    </g>
                </g>
            </g>
        </g>
    </g>
</svg>

<svg width="16" height="13" xmlns="http://www.w3.org/2000/svg" xmlns:xlink="http://www.w3.org/1999/xlink"><defs><path d="M12.46 8.623a1.013 1.013 0 11-.001-2.027 1.013 1.013 0 01.001 2.027m-8.918 0a1.014 1.014 0 110-2.028 1.014 1.014 0 010 2.028m-.919-4.252l1.193-2.963c.134-.332.532-.604.883-.604h6.604c.351 0 .749.272.883.604l1.193 2.963c.134.332-.045.604-.398.604h-9.96c-.353 0-.532-.272-.398-.604m12.517 6.29v.656c0 .464-.359.84-.8.84h-1.045c-.44 0-.8-.376-.8-.84v-.656h2.645zm-11.633 0v.656c0 .464-.36.84-.8.84H1.662c-.442 0-.8-.376-.8-.84v-.656h2.645zM11.692 0c.588 0 1.249.465 1.473 1.039l.788 2.021.406 1.038h.961c.375 0 .68.32.68.715 0 .394-.305.714-.68.714h-.431c.145.517.251 1.164.251 1.616v3.014h-2.645v-.001H3.507v.001H.861V7.143c0-.452.106-1.099.251-1.616H.679c-.375 0-.679-.32-.679-.714 0-.395.304-.715.679-.715h.965l.406-1.041.787-2.018C3.061.465 3.721 0 4.31 0z" id="car-driving-16px_svg__a"/></defs><use fill="#737373" xlink:href="#car-driving-16px_svg__a" fill-rule="evenodd"/></svg>
